X: 38953
T: Svensk Annas
R: waltz
M: 3/4
K: Dmajor
FG|A2 f2 e2|d2 c2 B2|A2 F3 G|A3 G FG|
A2 f2 e2|d2 c2 d2|e3 f e^d|e4 FG|
A2 f2 e2|d2 c2 B2|A2 F3 G|A3 A AA|
B2 g2 f2|e2 B2 c2|d3 e dc|d3 A:|
|:FG|A4 f2|A3 A A2|B4 g2|B3 B B2|
c3 d cB|E2 F2 G2|B2 A2 G2|F4 FG|
A4 f2|A3 A A2|B4 g2|B3 B B2|
c3 d cB|A2 f2 e2|d3 e dc|d4:|

